X:90
T:Farrell O'Gara
R:reel
Z:Transcribed by Dave Marshall
M:C|
K:D
|: A,D (3DDD DEFA|BFAF EABc|d2cd BdAF|GEFD EDB,D|
A,D (3DDD DEFA|BFAF EABc|d2cd BdAF|1 GFEG FDDB,:|2 GFEG FDD2
| fd~d2 fdgd | fagf edBc| d~B3 Bcde|fdgf e2eg|
fd~d2 fdgd|fagf edBc|d~B3 BAFD|GFEG FDD2|
fd~d2 fdgd|fagf edBc|d~B3 Bcde|fdgf ~e3g|
faaf edBc|d~B3 BAFD | A,D (3DDD DEFA | BFAF D4||
